!!!COM: Palestrina, Giovanni Perluigi da
!!!OPR: Missa Qual e il piu grande'amore
!!!OTL: Agnus I
**kern	**kern	**kern	**kern	**kern
*Ibass	*Itenor	*Icalto	*Icant	*Icant
!Bassus	!Tenor	!Altus	!Cantus 2	!Cantus 1
*clefF4	*clefGv2	*clefG2	*clefG2	*clefG2
*k[b-]	*k[b-]	*k[b-]	*k[b-]	*k[b-]
*F:ion	*F:ion	*F:ion	*F:ion	*F:ion
*M4/2	*M4/2	*M4/2	*M4/2	*M4/2
=1	=1	=1	=1	=1
1F	0r	1r	0r	0r
1A	.	1F	.	.
=2	=2	=2	=2	=2
2.c	1F	1A	0r	0r
4B-	.	.	.	.
4A	1A	2.c	.	.
4G	.	.	.	.
[2F	.	.	.	.
.	.	4B-	.	.
=3	=3	=3	=3	=3
2F]	2.c	2A	0r	1r
2E	.	2G	.	.
.	4B-	.	.	.
2.F	4A	2F	.	1f
.	4G	.	.	.
.	2A	2c	.	.
4E	.	.	.	.
=4	=4	=4	=4	=4
1D	4F	2d	0r	1a
.	4G	.	.	.
.	4A	2.f	.	.
.	4F	.	.	.
1C	1G	.	.	2.cc
.	.	8e	.	.
.	.	8d	.	.
.	.	2e	.	.
.	.	.	.	4b-
=5	=5	=5	=5	=5
1F	1A	1c	1f	4a
.	.	.	.	4g
.	.	.	.	4f
.	.	.	.	4e
1r	1r	2f	1a	4d
.	.	.	.	4e
.	.	2d	.	2f
=6	=6	=6	=6	=6
0r	2r	2e	2.cc	2g
.	2F	2.f	.	2a
.	.	.	4b-	.
.	2A	.	4a	2cc
.	.	4e	4g	.
.	[2B-	4d	4f	[2dd
.	.	4c	4e	.
=7	=7	=7	=7	=7
0r	2B-]	2B-	4d	2dd]
.	.	.	4e	.
.	2A	2c	2f	1cc
.	1G	1d	2g	.
.	.	.	2dd	2b-
=8	=8	=8	=8	=8
1r	1A	2r	4cc	4a
.	.	.	4b-	4g
.	.	2c	4a	4f
.	.	.	4g	4e
1BB-	1B-	2d	2f	1d
.	.	4f	4d	.
.	.	4e	4e	.
=9	=9	=9	=9	=9
1D	1F	4d	4f	2r
.	.	4c	4e	.
.	.	2B-	4f	2dd
.	.	.	4g	.
2.F	2r	[1A	1a	4cc
.	.	.	.	4b-
.	2c	.	.	4a
4E	.	.	.	4g
=10	=10	=10	=10	=10
4D	1d	2A]	2a	2f
4C	.	.	.	.
1BB-	.	2B-	2dd	4d
.	.	.	.	4e
.	2d	1F	2b-	4f
.	.	.	.	4g
2AA	2c	.	2cc	2a
=11	=11	=11	=11	=11
1BB-	2.B-	1F	1dd	4d
.	.	.	.	4e
.	.	.	.	1f
.	4A	.	.	.
[1C	1G	1c	1cc	.
.	.	.	.	4e
.	.	.	.	4d
=12	=12	=12	=12	=12
0C]	2r	2r	2r	2e
.	2c	2e	2cc	2g
.	1c	1e	1cc	1g
=13	=13	=13	=13	=13
0r	2G	2d	2b-	2g
.	2A	2c	2a	2e
.	2G	2d	2b-	2g
.	2F	2f	2cc	2a
=14	=14	=14	=14	=14
0r	4c	2e	2.cc	2g
.	4B-	.	.	.
.	4A	2.c	.	4a
.	4G	.	4b-	4b-
.	2F	.	2a	[1cc
.	.	4d	.	.
.	2E	[2e	4g	.
.	.	.	4f	.
=15	=15	=15	=15	=15
0r	1A	2e]	2e	1cc]
.	.	4d	2f#	.
.	.	4c	.	.
.	1G	1d	1g	1b
=16	=16	=16	=16	=16
1F	2r	1f	1a	0r
.	2c	.	.	.
1F	1c	1f	1a	.
=17	=17	=17	=17	=17
2C	2c	2e	2g	0r
2D	2A	2d	2f	.
2C	2c	2e	2g	.
2BB-	2d	2f	2b-	.
=18	=18	=18	=18	=18
4F	2c	[0f	4a	0r
4E	.	.	4g	.
4D	1d	.	4f	.
4C	.	.	4e	.
2BB-	.	.	2d	.
2AA	4c	.	[2a	.
.	4B-	.	.	.
=19	=19	=19	=19	=19
1D	2A	1f]	2a]	0r
.	2B-	.	4g	.
.	.	.	4f	.
1C	[1c	[1e	2a	.
.	.	.	2g	.
=20	=20	=20	=20	=20
2r	1c]	1e]	2r	2r
2c	.	.	2e	2g
2A	1r	1r	2a	2f
[2c	.	.	[2g	[2e
=21	=21	=21	=21	=21
2c]	2r	0r	2g]	2e]
2c	2c	.	2g	2e
1F	2A	.	1f	1a
.	[2c	.	.	.
=22	=22	=22	=22	=22
2C	2c]	0r	2e	2g
4F	2c	.	2.a	2.f
4G	.	.	.	.
4A	4F	.	.	.
4B-	4G	.	4g	4e
[2c	2A	.	4e	2c
.	.	.	4f	.
=23	=23	=23	=23	=23
2c]	1G	0r	1g	1d
2B	.	.	.	.
4c	1r	.	2e	2c
4B-	.	.	.	.
4A	.	.	[2a	[2cc
4G	.	.	.	.
=24	=24	=24	=24	=24
1F	0r	1f	2a]	2cc]
.	.	.	2cc	2a
1r	.	2d	2b-	2dd
.	.	2f	4a	4cc
.	.	.	4g	4b-
=25	=25	=25	=25	=25
0r	0r	2f	2a	2cc
.	.	2f	2cc	2a
.	.	1B-	1dd	1b-
=26	=26	=26	=26	=26
1F	2r	2f	1cc	4a
.	.	.	.	4g
.	2A	2c	.	4f
.	.	.	.	4e
2D	2d	2B-	2r	[1f
[2F	[2c	[2A	2cc	.
=27	=27	=27	=27	=27
2F]	2c]	2A]	2a	1f]
2F	2c	2A	1f	.
1BB-	1B-	1d	.	1r
.	.	.	2g	.
=28	=28	=28	=28	=28
0F	1A	1c	2.a	2r
.	.	.	.	2cc
.	.	.	4b-	.
.	2r	1f	4cc	2a
.	.	.	4b-	.
.	2c	.	4a	[2cc
.	.	.	4g	.
=29	=29	=29	=29	=29
0r	2A	2f	2a	2cc]
.	1c	2.e	4g	2cc
.	.	.	4f	.
.	.	.	4e	1g
.	.	4f	4c	.
.	2c	4g	2cc	.
.	.	4e	.	.
=30	=30	=30	=30	=30
0r	1F	2f	4dd	1a
.	.	.	4cc	.
.	.	2f	1cc	.
.	1G	1d	.	1g
.	.	.	2b	.
=31	=31	=31	=31	=31
1F	2r	4c	1cc	1a
.	.	4B-	.	.
.	2c	4A	.	.
.	.	4G	.	.
2D	2B-	1F	2r	2dd
[2F	[2A	.	[2a	[2cc
=32	=32	=32	=32	=32
2F]	2A]	1f	2a]	2cc]
2F	2A	.	2a	2cc
2.BB-	2.B-	2d	1dd	1b-
.	.	[2f	.	.
4C	8A	.	.	.
.	8G	.	.	.
=33	=33	=33	=33	=33
2.D	2.F	2f]	2dd	2a
.	.	2f	2.a	2.f
4E	4G	.	.	.
1F	1A	[1c	.	.
.	.	.	4g	4g
.	.	.	[2f	4a
.	.	.	.	4b-
=34	=34	=34	=34	=34
0C	0G	0c]	2f]	1cc
.	.	.	4e	.
.	.	.	4d	.
.	.	.	1e	1g
=35	=35	=35	=35	=35
0F	0F	0c	0f	0a
==	==	==	==	==
*-	*-	*-	*-	*-
!!!CDT: 1525/^1526/-1594/2/2
!!!OCY: Italia
!!!AGN: Mass (Parody)
!!!AST: renaissance, vocal
!!!ASW: Madrigal 1550 (Rore)
!!!PWK: Masses, Book 12
!!!RNB: Cadence finals: C
!!!YOR: Le Opere Complete, v. 29, p. 88
!!!YOO: Rome, Italy: Fratelli Scalera
!!!END: 1992//
!!!EED: John Miller
!!!YEC: Copyright 2000, John Miller
!!!YEN: United States of America
!!!YEM: Rights to all derivative electronic formats reserved.
!!!YEM: Refer to licensing agreement for further details.
!!!YEM: This file must be accompanied by the licensing agreement.
!!!YEM: A copy of the licensing agreement may be found at http://www.music-cog.ohio-state.edu/HumdrumDatabases/Palestrina/license.txt
!!!EMD: converted to Humdrum by Bret Aarden
